X:9393
T:Le gant
R:Chanson
O:France
B:Le livre des Chansons (Henri Davenson) n84
Z:<anamnese@caramail.com> -- http://anamnese.fr.st
M:6/8
L:1/8
Q:1/4=110
K:F
F | F A c c d e | f3 {c}f e e | e2 c d2 d | c2 z c e g | 
g2 c d2 e | d2 c B B B | A2 F G2 A | G2 z G F A | c2 c d2 B | d2 c c d e |
{g}f2 {A}A d2 c | A4 || "5 couplet" f f f |\
 e3 c d e | d2 c B B B | A3 F G A | G2 z ||
